img/footer-image.svg

<svg width="1922" height="1057" fill="none" xmlns="http://www.w3.org/2000/svg"><path d="M1921 205.7l-1.99-59.1c-75.35-53.4-152.49-112.3-247.44-114.4h-2.19c-165.53 3.6-261.87 180-426.4 198.6-29.66 3.3-59.72 1.3-89.29 4.6-41 4.6-80.12 19.4-118.64 34.1L849.918 340c-22.096 8.4-44.79 17-68.479 18-81.618 3.8-112.871-50.9-230.62-71.6-27.969-4.9-57.431-3.2-85.4-7.9-24.684-4.2-35.434-6.7-55.937-21.1-46.881-33-75.049-45.7-131.982-43.1-56.933-2.6-85.101 10.1-131.982 43.1-20.404 14.4-31.154 16.9-55.938 21.1-27.969 4.7-57.43 3-85.4 7.9-.199 0-1.791.1-4.18.1v769.7h1921V205.7z" fill="url(#paint0_linear)"/><path opacity=".3" d="M798.559 495.9c-8.56-31.1-45.287-45.4-61.81-73.3-17.02-28.7-13.139-71.3-13.537-104.5 7.366 24.7 15.129 51.3 29.562 72.7 12.143 18 28.765 32.8 40.908 50.8 10.252 15.1 17.22 32.3 20.305 50.2" fill="#003154"/><path opacity=".3" d="M814.484 484.9c-12.74-18.2-26.675-37-46.781-46.2-18.115-8.3-38.818-7.701-58.725-6.601-27.073 1.6-55.241 4.201-78.731 17.901 11.944-2.2 23.49-6.101 35.633-5.401 31.552 1.8 37.922 4.1 58.327 12 7.067 2.8 21.499 6.601 27.77 10.901 17.219 11.6 31.85 13.1 46.88 27.5" fill="#003154"/><path opacity=".3" d="M797.763 464.8c9.455-27.2 27.869-35.9 56.634-35.9 27.472 0 52.355.8 72.162-8.2-15.029 16.2-31.851 35.7-52.354 43.9-28.666 11.5-60.716-2.9-68.977 27.1m-28.567-33.9c-54.744-3.5-110.383 8.9-158.458 35.4 50.762-28.3 110.383-22.9 168.212-17.2" fill="#003154"/><path opacity=".3" d="M786.814 439.1c-1.195-12.5-.797-19.8 4.578-31.1 1.692-3.6 6.171-14.5 8.162-17.9 5.474-9.2 14.93-27.7 16.224-38.3-.1 23.4-9.456 63.4-11.745 86.7-.299 3-.498 6.1.1 9.1.995 4.9 4.18 9.5 3.384 14.4m385.593 119.9c8.56-31.1 45.29-45.4 61.81-73.3 17.02-28.7 13.14-71.3 13.54-104.5-7.37 24.7-15.13 51.3-29.56 72.7-12.15 18-28.77 32.8-40.91 50.8-10.25 15.1-17.22 32.3-20.31 50.2" fill="#003154"/><path opacity=".3" d="M1177.19 570.9c12.74-18.2 26.67-37 46.78-46.2 18.11-8.3 38.81-7.701 58.72-6.601 27.07 1.6 55.24 4.201 78.73 17.901-11.94-2.2-23.49-6.101-35.63-5.401-31.55 1.8-37.92 4.1-58.33 12-7.06 2.8-21.5 6.601-27.77 10.901-17.22 11.6-31.85 13.1-46.88 27.5" fill="#003154"/><path opacity=".3" d="M1193.91 550.8c-9.46-27.2-27.87-35.9-56.64-35.9-27.47 0-52.35.8-72.16-8.2 15.03 16.2 31.85 35.7 52.35 43.9 28.67 11.5 60.72-2.9 68.98 27.1m28.57-33.9c54.74-3.5 110.38 8.9 158.46 35.4-50.77-28.3-110.39-22.9-168.22-17.2" fill="#003154"/><path opacity=".3" d="M1204.86 525.1c1.19-12.5.79-19.8-4.58-31.1-1.69-3.6-6.17-14.5-8.16-17.9-5.48-9.2-14.93-27.7-16.23-38.3.1 23.4 9.46 63.4 11.75 86.7.3 3 .49 6.1-.1 9.1-1 4.9-4.18 9.5-3.39 14.4M291 386c6.133-28.3 4.387-25.201 20.116-49.701 2.77-4.4 9.893-15 11.376-20 1.188-4.3 2.474-21.699 4.056-25.899 2.869-7.5 11.278-10.5 16.917-16.2 5.638-5.8 7.617-10.3 11.871-9.5-11.575 18.7-5.145 21.199-7.618 32.599-2.473 11.4 4.947 14.601 4.551 26.201-.198 4.7-.495 11-1.286 15.7-.693 4.1-6.232 14.999-7.617 18.899-3.265 9.3-1.88 15.4-2.77 25.2-1.583 15.9.147 8.501-5.096 23.701-4.847 13.9-2.433 9.3-5.5 16m-81-89c-3.5-7.5 2.053 5.3-13.676-25-2.77-5.4-9.893-18.4-11.376-24.5-1.188-5.3-2.474-26.9-4.056-32.1-2.869-9.3-11.278-12.9-16.917-20-5.638-7.1-7.617-12.6-11.871-11.7 11.575 23 5.145 26.2 7.618 40.3 2.473 14.1-4.947 17.9-4.551 32.2.198 5.8.495 13.7 1.286 19.4.693 5.1 6.232 18.6 7.617 23.4 3.265 11.5 2.536 14.8 3.426 27 3.656 4.9 13.5 15.2 16 17 3.5 2.5 9.5 6 11.5 8.5" fill="#003154"/><path opacity=".3" d="M250 404c-16.568-23.3-3.042-6.6-23.104-21.5-3.593-2.7-12.476-9.1-15.57-13-2.695-3.4-11.478-18.999-14.272-22.099-5.091-5.5-11.079-4.201-16.868-6.701-5.789-2.5-8.983-5.9-10.979-2.9 15.171 11.6 12.776 17.201 19.363 26.601 6.587 9.4 3.992 15.9 9.681 26.5 2.296 4.3 5.39 10 7.985 14 2.296 3.4 9.367 7.499 10.764 11.599 3.393 9.8-.993-2.9 2.5 7 .878 2.5 2 4.5 3.5 7.5" fill="#003154"/><path opacity=".3" d="M296 367c.424-.8 3.319-11.8 6-16 3.5-5.5 11.811-13 12.029-25.9.498-29.4-20.305-30.9-15.428-60 1.195-7.5 10.55-29.7 9.954-43.5-.303-7-1.991-12.5-6.569-20.6-.1-3.4-22.296-24.9-25.282-30.4-4.479-15.5 2.688-23.2-1.99-49-4.678 25.8-21.798 30.8-23.988 51.3-.398 3.4 5.573 16.2 8.559 26.2 3.484 11.7-4.976 25-8.559 32.5-3.285 6.9-11.645 27.8-10.351 35.3 4.877 29 8.459 21.8 8.957 51.2.099 5.1-2.441 23.1-4.332 27.9-1.294 3.3-9.609 40-11.5 43 10 0 14.332 10.5 15.832 16 0 0 16.668-21 30.168-22.5 6.165-.7 6.5 2 12.5 5 0-6 1.5-13 1.5-13 0-4 2-6.5 2.5-7.5zm1360-101.5c-6.13-28.3-4.51-25.701-20.24-50.201-2.77-4.4-9.89-15-11.37-20-1.19-4.3-2.48-21.699-4.06-25.899-2.87-7.5-11.28-10.5-16.92-16.2-5.63-5.8-7.61-10.3-11.87-9.5 11.58 18.7 5.15 21.199 7.62 32.599 2.47 11.4-4.95 14.601-4.55 26.201.2 4.7.49 11 1.29 15.7.69 4.1 6.23 14.999 7.61 18.899 3.27 9.3 1.88 15.4 2.77 25.2 1.59 15.9 5.35 20.901 10.59 36.101 4.85 13.9-.94-.6 2.13 6.1m71-45c6.13-34.9 5.83-41.2 21.55-71.5 2.77-5.4 9.9-18.4 11.38-24.5 1.19-5.3 2.47-26.9 4.06-32.1 2.87-9.3 11.27-12.9 16.91-20 5.64-7.1 7.62-12.6 11.87-11.7-11.57 23-5.14 26.2-7.61 40.3-2.48 14.1 4.94 17.9 4.55 32.2-.2 5.8-.5 13.7-1.29 19.4-.69 5.1-6.23 18.6-7.62 23.4-3.26 11.5-1.91 13.3-2.8 25.5-5 8-15 16-19.5 20-6 5.3-12.5 11-16 14.5" fill="#003154"/><path opacity=".3" d="M1705.5 275c2.5-2.5 10.36-10.5 14.48-13.5 3.6-2.7 12.48-9.1 15.57-13 2.7-3.4 11.48-18.999 14.28-22.099 5.09-5.5 11.07-4.201 16.86-6.701 5.79-2.5 8.99-5.9 10.98-2.9-15.17 11.6-12.77 17.201-19.36 26.601-6.59 9.4-3.99 15.9-9.68 26.5-2.3 4.3-5.39 10-7.99 14-2.29 3.4-3.35 5.399-3.64 6.099-1 2.5-1.46 3.5-2 5s-.9 2.4-3 7m-85-68c-1.57-3.1-7.5-9-7.5-12-4-5.5-6.65-12.8-6.65-17.9-.5-29.4 20.3-30.9 15.43-60-1.2-7.5-10.55-29.7-9.96-43.5.31-7 1.99-12.5 6.57-20.6.1-3.4 22.3-24.9 25.28-30.4 4.48-15.5-2.68-23.2 1.99-49 4.68 25.8 21.8 30.8 23.99 51.3.4 3.4-5.57 16.2-8.56 26.2-3.48 11.7 4.98 25 8.56 32.5 3.29 6.9 11.65 27.8 10.35 35.3-4.87 29-8.46 21.8-8.95 51.2-.1 5.1 1.06 10.6 2.95 15.4-2 5-4.08 18-5 21-5 16.4-3.5 22-5.5 25.5l-2-1s-5.5-5-12.5-4-10 3-10 3l-9 7.5c-3-9.5-4-19.5-9.5-30.5z" fill="#003154"/><path opacity=".3" d="M1865.9 392.5c-46.7-27.8-64.7-51.1-84-59.9-63.5-28.6-83.4-75.3-102.8-78.7v-.9c-.2.1-.4.3-.6.4-.1 0-.1-.1-.2-.1v.2c-27.8 0-39.2 50-102.8 78.7-19.3 8.7-37.3 32.1-84 59.9-105.7 62.7-164 114.5-204.5 134.7-92.4 46.1-181.9 48.7-281.6 22-85.8-23-148.9-65.6-252.5-77.4-51.6-5.8-98.6 30.9-148.1 46.5-49.5 15.5-110.9 16.5-145.6-22.1-11.4-12.7-27.4-19.2-41.1-29.4-25-18.7-53.5-22-80.2-38.3-21.1-12.9-34.8-40.7-56.4-45.6l-.305-.1c-.1 0-.695.1-.859 0-.288-.2-.836.5-1.536.4-21.6 5-35.4 32.8-56.5 45.6-26.7 16.3-55.2 19.5-80.2 38.3-13.7 10.3-29.7 16.7-41.1 29.4-24.6 27.7-63 35-101 31.3v527.1l281.5-.1v-.3l1338.6.4c25.3.6 58.3.1 58.5-.8 0-.2.1-.4.1-.7.1.3.1.6.2 1 .2.9 33.1 1.3 58.5.8l184.6-.1V427.4c-17.1-11.1-35.7-22.8-56.1-34.9zm-187.1 644.1c0-1.4-.1-3.1 0-5v-3.8 8.8z" fill="#000640"/><defs><linearGradient id="paint0_linear" x1="0" y1="544.2" x2="1921" y2="544.2" gradientUnits="userSpaceOnUse"><stop offset=".001" stop-color="#3A6C8D"/><stop offset="1" stop-color="#336484"/></linearGradient></defs></svg>

<svg width="1922" height="1057" viewBox="0 0 1922 1057" fill="none" xmlns="http://www.w3.org/2000/svg">
<path d="M1921 205.7L1919.01 146.6C1843.66 93.1996 1766.52 34.3002 1671.57 32.2002C1670.87 32.2002 1670.08 32.2002 1669.38 32.2002C1503.85 35.8002 1407.51 212.2 1242.98 230.8C1213.32 234.1 1183.26 232.1 1153.69 235.4C1112.69 240 1073.57 254.8 1035.05 269.5C973.34 293 911.629 316.5 849.918 340C827.822 348.4 805.128 357 781.439 358C699.821 361.8 668.568 307.1 550.819 286.4C522.85 281.5 493.388 283.2 465.419 278.5C440.735 274.3 429.985 271.8 409.482 257.4C362.601 224.4 334.433 211.7 277.5 214.3C220.567 211.7 192.399 224.4 145.518 257.4C125.114 271.8 114.364 274.3 89.5803 278.5C61.6113 283.2 32.1494 281.5 4.18041 286.4C3.98135 286.4 2.38881 286.5 0 286.5V1056.2H1921V205.7Z" fill="url(#paint0_linear)"/>
<path opacity="0.3" d="M798.559 495.9C789.999 464.8 753.272 450.5 736.749 422.6C719.729 393.9 723.61 351.3 723.212 318.1C730.578 342.8 738.341 369.4 752.774 390.8C764.917 408.8 781.539 423.6 793.682 441.6C803.934 456.7 810.902 473.9 813.987 491.8" fill="#003154"/>
<path opacity="0.3" d="M814.484 484.9C801.744 466.7 787.809 447.9 767.703 438.7C749.588 430.4 728.885 430.999 708.978 432.099C681.905 433.699 653.737 436.3 630.247 450C642.191 447.8 653.737 443.899 665.88 444.599C697.432 446.399 703.802 448.699 724.207 456.599C731.274 459.399 745.706 463.2 751.977 467.5C769.196 479.1 783.827 480.6 798.857 495" fill="#003154"/>
<path opacity="0.3" d="M797.763 464.8C807.218 437.6 825.632 428.9 854.397 428.9C881.869 428.9 906.752 429.7 926.559 420.7C911.53 436.9 894.708 456.4 874.205 464.6C845.539 476.1 813.489 461.7 805.228 491.7" fill="#003154"/>
<path opacity="0.3" d="M776.661 457.8C721.917 454.3 666.278 466.7 618.203 493.2C668.965 464.9 728.586 470.3 786.415 476" fill="#003154"/>
<path opacity="0.3" d="M786.814 439.1C785.619 426.6 786.017 419.3 791.392 408C793.084 404.4 797.563 393.5 799.554 390.1C805.028 380.9 814.484 362.4 815.778 351.8C815.678 375.2 806.322 415.2 804.033 438.5C803.734 441.5 803.535 444.6 804.133 447.6C805.128 452.5 808.313 457.1 807.517 462" fill="#003154"/>
<path opacity="0.3" d="M1193.11 581.9C1201.67 550.8 1238.4 536.5 1254.92 508.6C1271.94 479.9 1268.06 437.3 1268.46 404.1C1261.09 428.8 1253.33 455.4 1238.9 476.8C1226.75 494.8 1210.13 509.6 1197.99 527.6C1187.74 542.7 1180.77 559.9 1177.68 577.8" fill="#003154"/>
<path opacity="0.3" d="M1177.19 570.9C1189.93 552.7 1203.86 533.9 1223.97 524.7C1242.08 516.4 1262.78 516.999 1282.69 518.099C1309.76 519.699 1337.93 522.3 1361.42 536C1349.48 533.8 1337.93 529.899 1325.79 530.599C1294.24 532.399 1287.87 534.699 1267.46 542.599C1260.4 545.399 1245.96 549.2 1239.69 553.5C1222.47 565.1 1207.84 566.6 1192.81 581" fill="#003154"/>
<path opacity="0.3" d="M1193.91 550.8C1184.45 523.6 1166.04 514.9 1137.27 514.9C1109.8 514.9 1084.92 515.7 1065.11 506.7C1080.14 522.9 1096.96 542.4 1117.46 550.6C1146.13 562.1 1178.18 547.7 1186.44 577.7" fill="#003154"/>
<path opacity="0.3" d="M1215.01 543.8C1269.75 540.3 1325.39 552.7 1373.47 579.2C1322.7 550.9 1263.08 556.3 1205.25 562" fill="#003154"/>
<path opacity="0.3" d="M1204.86 525.1C1206.05 512.6 1205.65 505.3 1200.28 494C1198.59 490.4 1194.11 479.5 1192.12 476.1C1186.64 466.9 1177.19 448.4 1175.89 437.8C1175.99 461.2 1185.35 501.2 1187.64 524.5C1187.94 527.5 1188.13 530.6 1187.54 533.6C1186.54 538.5 1183.36 543.1 1184.15 548" fill="#003154"/>
<path opacity="0.3" d="M291 386C297.133 357.7 295.387 360.799 311.116 336.299C313.886 331.899 321.009 321.299 322.492 316.299C323.68 311.999 324.966 294.6 326.548 290.4C329.417 282.9 337.826 279.9 343.465 274.2C349.103 268.4 351.082 263.9 355.336 264.7C343.761 283.4 350.191 285.899 347.718 297.299C345.245 308.699 352.665 311.9 352.269 323.5C352.071 328.2 351.774 334.5 350.983 339.2C350.29 343.3 344.751 354.199 343.366 358.099C340.101 367.399 341.486 373.499 340.596 383.299C339.013 399.199 340.743 391.8 335.5 407C330.653 420.9 333.067 416.3 330 423" fill="#003154"/>
<path opacity="0.3" d="M249 334C245.5 326.5 251.053 339.3 235.324 309C232.554 303.6 225.431 290.6 223.948 284.5C222.76 279.2 221.474 257.6 219.892 252.4C217.023 243.1 208.614 239.5 202.975 232.4C197.337 225.3 195.358 219.8 191.104 220.7C202.679 243.7 196.249 246.9 198.722 261C201.195 275.1 193.775 278.9 194.171 293.2C194.369 299 194.666 306.9 195.457 312.6C196.15 317.7 201.689 331.2 203.074 336C206.339 347.5 205.61 350.8 206.5 363C210.156 367.9 220 378.2 222.5 380C226 382.5 232 386 234 388.5" fill="#003154"/>
<path opacity="0.3" d="M250 404C233.432 380.7 246.958 397.4 226.896 382.5C223.303 379.8 214.42 373.4 211.326 369.5C208.631 366.1 199.848 350.501 197.054 347.401C191.963 341.901 185.975 343.2 180.186 340.7C174.397 338.2 171.203 334.8 169.207 337.8C184.378 349.4 181.983 355.001 188.57 364.401C195.157 373.801 192.562 380.301 198.251 390.901C200.547 395.201 203.641 400.901 206.236 404.901C208.532 408.301 215.603 412.4 217 416.5C220.393 426.3 216.007 413.6 219.5 423.5C220.378 426 221.5 428 223 431" fill="#003154"/>
<path opacity="0.3" d="M296 367C296.424 366.2 299.319 355.2 302 351C305.5 345.5 313.811 338 314.029 325.1C314.527 295.7 293.724 294.2 298.601 265.1C299.796 257.6 309.151 235.4 308.555 221.6C308.252 214.6 306.564 209.1 301.986 201C301.886 197.6 279.69 176.1 276.704 170.6C272.225 155.1 279.392 147.4 274.714 121.6C270.036 147.4 252.916 152.4 250.726 172.9C250.328 176.3 256.299 189.1 259.285 199.1C262.769 210.8 254.309 224.1 250.726 231.6C247.441 238.5 239.081 259.4 240.375 266.9C245.252 295.9 248.834 288.7 249.332 318.1C249.431 323.2 246.891 341.2 245 346C243.706 349.3 235.391 386 233.5 389C243.5 389 247.832 399.5 249.332 405C249.332 405 266 384 279.5 382.5C285.665 381.8 286 384.5 292 387.5C292 381.5 293.5 374.5 293.5 374.5C293.5 370.5 295.5 368 296 367Z" fill="#003154"/>
<path opacity="0.3" d="M1656 265.5C1649.87 237.2 1651.49 239.799 1635.76 215.299C1632.99 210.899 1625.87 200.299 1624.39 195.299C1623.2 190.999 1621.91 173.6 1620.33 169.4C1617.46 161.9 1609.05 158.9 1603.41 153.2C1597.78 147.4 1595.8 142.9 1591.54 143.7C1603.12 162.4 1596.69 164.899 1599.16 176.299C1601.63 187.699 1594.21 190.9 1594.61 202.5C1594.81 207.2 1595.1 213.5 1595.9 218.2C1596.59 222.3 1602.13 233.199 1603.51 237.099C1606.78 246.399 1605.39 252.499 1606.28 262.299C1607.87 278.199 1611.63 283.2 1616.87 298.4C1621.72 312.3 1615.93 297.8 1619 304.5" fill="#003154"/>
<path opacity="0.3" d="M1690 259.5C1696.13 224.6 1695.83 218.3 1711.55 188C1714.32 182.6 1721.45 169.6 1722.93 163.5C1724.12 158.2 1725.4 136.6 1726.99 131.4C1729.86 122.1 1738.26 118.5 1743.9 111.4C1749.54 104.3 1751.52 98.8002 1755.77 99.7002C1744.2 122.7 1750.63 125.9 1748.16 140C1745.68 154.1 1753.1 157.9 1752.71 172.2C1752.51 178 1752.21 185.9 1751.42 191.6C1750.73 196.7 1745.19 210.2 1743.8 215C1740.54 226.5 1741.89 228.3 1741 240.5C1736 248.5 1726 256.5 1721.5 260.5C1715.5 265.8 1709 271.5 1705.5 275" fill="#003154"/>
<path opacity="0.3" d="M1705.5 275C1708 272.5 1715.86 264.5 1719.98 261.5C1723.58 258.8 1732.46 252.4 1735.55 248.5C1738.25 245.1 1747.03 229.501 1749.83 226.401C1754.92 220.901 1760.9 222.2 1766.69 219.7C1772.48 217.2 1775.68 213.8 1777.67 216.8C1762.5 228.4 1764.9 234.001 1758.31 243.401C1751.72 252.801 1754.32 259.301 1748.63 269.901C1746.33 274.201 1743.24 279.901 1740.64 283.901C1738.35 287.301 1737.29 289.3 1737 290C1736 292.5 1735.54 293.5 1735 295C1734.46 296.5 1734.1 297.4 1732 302" fill="#003154"/>
<path opacity="0.3" d="M1647 234C1645.43 230.9 1639.5 225 1639.5 222C1635.5 216.5 1632.85 209.2 1632.85 204.1C1632.35 174.7 1653.15 173.2 1648.28 144.1C1647.08 136.6 1637.73 114.4 1638.32 100.6C1638.63 93.5996 1640.31 88.1 1644.89 80C1644.99 76.6 1667.19 55.0996 1670.17 49.5996C1674.65 34.0996 1667.49 26.3996 1672.16 0.599609C1676.84 26.3996 1693.96 31.4004 1696.15 51.9004C1696.55 55.3004 1690.58 68.0996 1687.59 78.0996C1684.11 89.7996 1692.57 103.1 1696.15 110.6C1699.44 117.5 1707.8 138.4 1706.5 145.9C1701.63 174.9 1698.04 167.7 1697.55 197.1C1697.45 202.2 1698.61 207.7 1700.5 212.5C1698.5 217.5 1696.42 230.5 1695.5 233.5C1690.5 249.9 1692 255.5 1690 259L1688 258C1688 258 1682.5 253 1675.5 254C1668.5 255 1665.5 257 1665.5 257L1656.5 264.5C1653.5 255 1652.5 245 1647 234Z" fill="#003154"/>
<path opacity="0.3" d="M1865.9 392.5C1819.2 364.7 1801.2 341.4 1781.9 332.6C1718.4 304 1698.5 257.3 1679.1 253.9C1679.1 253.3 1679.1 253 1679.1 253C1678.9 253.1 1678.7 253.3 1678.5 253.4C1678.4 253.4 1678.4 253.3 1678.3 253.3C1678.3 253.3 1678.3 253.4 1678.3 253.5C1650.5 253.5 1639.1 303.5 1575.5 332.2C1556.2 340.9 1538.2 364.3 1491.5 392.1C1385.8 454.8 1327.5 506.6 1287 526.8C1194.6 572.9 1105.1 575.5 1005.4 548.8C919.6 525.8 856.5 483.2 752.9 471.4C701.3 465.6 654.3 502.3 604.8 517.9C555.3 533.4 493.9 534.4 459.2 495.8C447.8 483.1 431.8 476.6 418.1 466.4C393.1 447.7 364.6 444.4 337.9 428.1C316.8 415.2 303.1 387.4 281.5 382.5L281.195 382.4C281.095 382.4 280.5 382.5 280.336 382.4C280.048 382.2 279.5 382.9 278.8 382.8C257.2 387.8 243.4 415.6 222.3 428.4C195.6 444.7 167.1 447.9 142.1 466.7C128.4 477 112.4 483.4 101 496.1C76.4 523.8 38 531.1 0 527.4V1054.5L281.5 1054.4C281.5 1054.3 281.5 1054.2 281.5 1054.1L1620.1 1054.5C1645.4 1055.1 1678.4 1054.6 1678.6 1053.7C1678.6 1053.5 1678.7 1053.3 1678.7 1053C1678.8 1053.3 1678.8 1053.6 1678.9 1054C1679.1 1054.9 1712 1055.3 1737.4 1054.8L1922 1054.7V427.4C1904.9 416.3 1886.3 404.6 1865.9 392.5ZM1678.8 1036.6C1678.8 1035.2 1678.7 1033.5 1678.8 1031.6C1678.8 1030.3 1678.8 1029 1678.8 1027.8C1678.8 1029.2 1678.8 1030.6 1678.8 1031.9C1678.8 1033.6 1678.8 1035.2 1678.8 1036.6Z" fill="#000640"/>
<defs>
<linearGradient id="paint0_linear" x1="0" y1="544.2" x2="1921" y2="544.2" gradientUnits="userSpaceOnUse">
<stop offset="0.000911931" stop-color="#3A6C8D"/>
<stop offset="1" stop-color="#336484"/>
</linearGradient>
</defs>
</svg>
